storage/app/icons/phosphoricons/regular/notebook.svg

<svg xmlns="http://www.w3.org/2000/svg" fill="currentColor" viewBox="0 0 256 256"><path d="M184 112a8 8 0 0 1-8 8h-64a8 8 0 0 1 0-16h64a8 8 0 0 1 8 8m-8 24h-64a8 8 0 0 0 0 16h64a8 8 0 0 0 0-16m48-88v160a16 16 0 0 1-16 16H48a16 16 0 0 1-16-16V48a16 16 0 0 1 16-16h160a16 16 0 0 1 16 16M48 208h24V48H48Zm160 0V48H88v160z"/></svg>

<svg xmlns="http://www.w3.org/2000/svg" viewBox="0 0 256 256" fill="currentColor"><path d="M184,112a8,8,0,0,1-8,8H112a8,8,0,0,1,0-16h64A8,8,0,0,1,184,112Zm-8,24H112a8,8,0,0,0,0,16h64a8,8,0,0,0,0-16Zm48-88V208a16,16,0,0,1-16,16H48a16,16,0,0,1-16-16V48A16,16,0,0,1,48,32H208A16,16,0,0,1,224,48ZM48,208H72V48H48Zm160,0V48H88V208H208Z"/></svg>
